www/assets/icons/fort.svg

<svg xmlns="http://www.w3.org/2000/svg" width="24" height="24" viewBox="0 0 24 24" fill='currentColor'><path d="M21 3v2h-2V3h-2v2h-2V3h-2v4l2 2v1H9V9l2-2V3H9v2H7V3H5v2H3V3H1v4l2 2v6l-2 2v4h9v-3c0-1.1.9-2 2-2s2 .9 2 2v3h9v-4l-2-2V9l2-2V3z"/></svg>

<svg width="24" height="24" viewBox="0 0 24 24" xmlns="http://www.w3.org/2000/svg" fill='currentColor'><path d="M21 3V5H19V3H17V5H15V3H13V7L15 9V10H9V9L11 7V3H9V5H7V3H5V5H3V3H1V7L3 9V15L1 17V21H10V18C10 16.9 10.9 16 12 16C13.1 16 14 16.9 14 18V21H23V17L21 15V9L23 7V3H21Z"/></svg>
